image/ection-twacs-item-img1.svg

<svg fill="none" height="29" viewBox="0 0 29 29" width="29" xmlns="http://www.w3.org/2000/svg"><g fill="#4b4b4b"><path d="m10.7928 9.30778c-.4101-.41007-1.07495-.41007-1.48502 0s-.41007 1.07492 0 1.48502c.41007.41 1.07492.41 1.48502 0 .41-.4101.41-1.07495 0-1.48502z"/><path d="m14.5052 10.5453c-.41-.4101-1.0749-.4101-1.485 0-.41.41-.41 1.0749 0 1.485.4101.41 1.075.41 1.485 0 .4101-.4101.4101-1.075 0-1.485z"/><path d="m19.4552 15.4952c.4101.4101.4101 1.0749 0 1.485s-1.0749.4101-1.485 0-.4101-1.0749 0-1.485c.4101-.41 1.0749-.41 1.485 0z"/><path d="m20.6927 20.6927c.41-.4101.41-1.0749 0-1.485-.4101-.4101-1.0749-.4101-1.485 0s-.4101 1.0749 0 1.485c.4101.41 1.0749.41 1.485 0z"/><path d="m15.7427 15.7427c.4101-.41.4101-1.0749 0-1.485-.41-.41-1.0749-.41-1.485 0-.41.4101-.41 1.075 0 1.485.4101.4101 1.075.4101 1.485 0z"/><path d="m16.9802 17.9702c.4101.4101.4101 1.0749 0 1.485s-1.0749.4101-1.485 0c-.41-.4101-.41-1.0749 0-1.485.4101-.4101 1.0749-.4101 1.485 0z"/><path d="m10.5453 13.0202c.41-.41 1.0749-.41 1.485 0 .41.4101.41 1.075 0 1.485-.4101.4101-1.075.4101-1.485 0-.4101-.41-.4101-1.0749 0-1.485z"/><path clip-rule="evenodd" d="m17.5315 1.9105c2.5473-2.547333 6.6773-2.547332 9.2247 0 2.5473 2.54733 2.5473 6.67737 0 9.2247l-3.1982 3.1981 3.1982 3.1982c2.5473 2.5473 2.5473 6.6773 0 9.2247-2.5474 2.5473-6.6774 2.5473-9.2247 0l-3.1982-3.1982-3.1981 3.1982c-2.54733 2.5473-6.67737 2.5473-9.2247 0-2.547333-2.5474-2.547333-6.6774 0-9.2247l3.19813-3.1982-3.19813-3.1981c-2.547332-2.54733-2.547333-6.67737 0-9.2247 2.54733-2.547332 6.67737-2.547332 9.2247 0l3.1981 3.19813zm7.8105 17.0352c1.7662 1.7663 1.7662 4.63 0 6.3963-1.7663 1.7662-4.63 1.7662-6.3963 0l-15.62099-15.62101c-1.76628-1.76629-1.76628-4.63 0-6.39628s4.62999-1.76628 6.39627 0zm0-9.22472-3.1982 3.19812-6.3963-6.39625 3.1982-3.19814c1.7663-1.76628 4.63-1.76628 6.3963 0 1.7662 1.76628 1.7662 4.62999 0 6.39627zm-22.01729 9.22472 3.19814-3.1982 6.39625 6.3963-3.19812 3.1982c-1.76628 1.7662-4.62999 1.7662-6.39627 0-1.76628-1.7663-1.76628-4.63 0-6.3963z" fill-rule="evenodd"/></g></svg>

<svg width="29" height="29" viewBox="0 0 29 29" fill="none" xmlns="http://www.w3.org/2000/svg">
<path d="M10.7928 9.30778C10.3827 8.89771 9.71785 8.89771 9.30778 9.30778C8.89771 9.71785 8.89771 10.3827 9.30778 10.7928C9.71785 11.2028 10.3827 11.2028 10.7928 10.7928C11.2028 10.3827 11.2028 9.71785 10.7928 9.30778Z" fill="#4B4B4B"/>
<path d="M14.5052 10.5453C14.0952 10.1352 13.4303 10.1352 13.0202 10.5453C12.6102 10.9553 12.6102 11.6202 13.0202 12.0303C13.4303 12.4403 14.0952 12.4403 14.5052 12.0303C14.9153 11.6202 14.9153 10.9553 14.5052 10.5453Z" fill="#4B4B4B"/>
<path d="M19.4552 15.4952C19.8653 15.9053 19.8653 16.5701 19.4552 16.9802C19.0451 17.3903 18.3803 17.3903 17.9702 16.9802C17.5601 16.5701 17.5601 15.9053 17.9702 15.4952C18.3803 15.0852 19.0451 15.0852 19.4552 15.4952Z" fill="#4B4B4B"/>
<path d="M20.6927 20.6927C21.1027 20.2826 21.1027 19.6178 20.6927 19.2077C20.2826 18.7976 19.6178 18.7976 19.2077 19.2077C18.7976 19.6178 18.7976 20.2826 19.2077 20.6927C19.6178 21.1027 20.2826 21.1027 20.6927 20.6927Z" fill="#4B4B4B"/>
<path d="M15.7427 15.7427C16.1528 15.3327 16.1528 14.6678 15.7427 14.2577C15.3327 13.8477 14.6678 13.8477 14.2577 14.2577C13.8477 14.6678 13.8477 15.3327 14.2577 15.7427C14.6678 16.1528 15.3327 16.1528 15.7427 15.7427Z" fill="#4B4B4B"/>
<path d="M16.9802 17.9702C17.3903 18.3803 17.3903 19.0451 16.9802 19.4552C16.5701 19.8653 15.9053 19.8653 15.4952 19.4552C15.0852 19.0451 15.0852 18.3803 15.4952 17.9702C15.9053 17.5601 16.5701 17.5601 16.9802 17.9702Z" fill="#4B4B4B"/>
<path d="M10.5453 13.0202C10.9553 12.6102 11.6202 12.6102 12.0303 13.0202C12.4403 13.4303 12.4403 14.0952 12.0303 14.5052C11.6202 14.9153 10.9553 14.9153 10.5453 14.5052C10.1352 14.0952 10.1352 13.4303 10.5453 13.0202Z" fill="#4B4B4B"/>
<path fill-rule="evenodd" clip-rule="evenodd" d="M17.5315 1.9105C20.0788 -0.636833 24.2088 -0.636832 26.7562 1.9105C29.3035 4.45783 29.3035 8.58787 26.7562 11.1352L23.558 14.3333L26.7562 17.5315C29.3035 20.0788 29.3035 24.2088 26.7562 26.7562C24.2088 29.3035 20.0788 29.3035 17.5315 26.7562L14.3333 23.558L11.1352 26.7562C8.58787 29.3035 4.45783 29.3035 1.9105 26.7562C-0.636833 24.2088 -0.636833 20.0788 1.9105 17.5315L5.10863 14.3333L1.9105 11.1352C-0.636832 8.58787 -0.636833 4.45783 1.9105 1.9105C4.45783 -0.636832 8.58787 -0.636832 11.1352 1.9105L14.3333 5.10863L17.5315 1.9105ZM25.342 18.9457C27.1082 20.712 27.1082 23.5757 25.342 25.342C23.5757 27.1082 20.712 27.1082 18.9457 25.342L3.32471 9.72099C1.55843 7.9547 1.55843 5.09099 3.32471 3.32471C5.09099 1.55843 7.9547 1.55843 9.72098 3.32471L25.342 18.9457ZM25.342 9.72098L22.1438 12.9191L15.7475 6.52285L18.9457 3.32471C20.712 1.55843 23.5757 1.55843 25.342 3.32471C27.1082 5.09099 27.1082 7.9547 25.342 9.72098ZM3.32471 18.9457L6.52285 15.7475L12.9191 22.1438L9.72098 25.342C7.9547 27.1082 5.09099 27.1082 3.32471 25.342C1.55843 23.5757 1.55843 20.712 3.32471 18.9457Z" fill="#4B4B4B"/>
</svg>
